school/img/country/UY.svg

<svg width="13" height="12" viewBox="0 0 13 12" fill="none" xmlns="http://www.w3.org/2000/svg">
<rect x="0.25" y="0.25" width="12.5" height="11.5" rx="1.75" fill="white" stroke="#F5F5F5" stroke-width="0.5"/>
<mask id="mask0" mask-type="alpha" maskUnits="userSpaceOnUse" x="0" y="0" width="13" height="12">
<rect x="0.25" y="0.25" width="12.5" height="11.5" rx="1.75" fill="white" stroke="white" stroke-width="0.5"/>
</mask>
<g mask="url(#mask0)">
<path fill-rule="evenodd" clip-rule="evenodd" d="M0 8V9.6H13V0H13V1.6H6.19048V3.2H13V4.8H6.19048V6.4H13V8H6.19048H6.19045H0ZM0 12V11.2H13V12H0Z" fill="#0E4DC5"/>
<path fill-rule="evenodd" clip-rule="evenodd" d="M3.0953 5.59278L2.68205 6.38997L2.57737 5.44001L1.93739 5.92654L2.16202 5.01196L1.42207 5.09147L1.93152 4.39341L1.23816 4.05014L1.93152 3.70688L1.42207 3.00882L2.16202 3.08833L1.93739 2.17375L2.57737 2.66028L2.68205 1.71032L3.0953 2.50751L3.50856 1.71032L3.61323 2.66028L4.25321 2.17375L4.02858 3.08833L4.76853 3.00882L4.25908 3.70688L4.95245 4.05014L4.25908 4.39341L4.76853 5.09147L4.02858 5.01196L4.25321 5.92654L3.61323 5.44001L3.50856 6.38997L3.0953 5.59278ZM3.09528 5.57742C3.74798 5.57742 4.2771 4.89363 4.2771 4.05014C4.2771 3.20666 3.74798 2.52287 3.09528 2.52287C2.44258 2.52287 1.91346 3.20666 1.91346 4.05014C1.91346 4.89363 2.44258 5.57742 3.09528 5.57742ZM4.02387 4C4.02387 4.66274 3.60814 5.2 3.0953 5.2C2.58247 5.2 2.16673 4.66274 2.16673 4C2.16673 3.33726 2.58247 2.8 3.0953 2.8C3.60814 2.8 4.02387 3.33726 4.02387 4Z" fill="#FED443"/>
</g>
</svg>

<svg width="13" height="12" fill="none" xmlns="http://www.w3.org/2000/svg"><rect x=".25" y=".25" width="12.5" height="11.5" rx="1.75" fill="#fff" stroke="#F5F5F5" stroke-width=".5"/><mask id="a" maskUnits="userSpaceOnUse" x="0" y="0" width="13" height="12"><rect x=".25" y=".25" width="12.5" height="11.5" rx="1.75" fill="#fff" stroke="#fff" stroke-width=".5"/></mask><g mask="url(#a)" fill-rule="evenodd" clip-rule="evenodd"><path d="M0 8v1.6h13V0v1.6H6.19v1.6H13v1.6H6.19v1.6H13V8H0zm0 4v-.8h13v.8H0z" fill="#0E4DC5"/><path d="M3.095 5.593l-.413.797-.105-.95-.64.487.225-.915-.74.08.51-.699-.694-.343.694-.343-.51-.698.74.08-.225-.915.64.486.105-.95.413.798.414-.798.104.95.64-.486-.224.914.74-.08-.51.699.693.343-.693.343.51.698-.74-.079.224.915-.64-.487-.104.95-.414-.797zm0-.016c.653 0 1.182-.683 1.182-1.527 0-.843-.529-1.527-1.182-1.527-.652 0-1.182.684-1.182 1.527 0 .844.53 1.527 1.182 1.527zM4.024 4c0 .663-.416 1.2-.929 1.2-.513 0-.928-.537-.928-1.2 0-.663.415-1.2.928-1.2.513 0 .929.537.929 1.2z" fill="#FED443"/></g></svg>
